assets/images/web/home-icon.svg

<svg xmlns:svg="http://www.w3.org/2000/svg" xmlns="http://www.w3.org/2000/svg" version="1.1" width="18.20125" height="15.662499" viewBox="0 0 14.561 12.53">
<path d="m3.156 12.53 0-5.2500002-3.156 0L7.281-1.8160381e-7 14.561 7.2799998l-3.155 0 0 5.2500002-3.375 0 0-3.3750002-1.5 0 0 3.3750002-3.375 0zm2.625-0.75 0-3.3750002 3 0 0 3.3750002 1.875 0 0-5.2500002 2.094 0-5.469-5.47-5.47 5.47 2.095 0 0 5.2500002 1.875 0z" fill="#f60"/>
</svg>

<svg xmlns="http://www.w3.org/2000/svg" viewBox="0 0 14.56 12.53">
  <path fill="#f60" d="M3.16 12.53V7.28H0L7.28 0l7.28 7.28H11.4v5.25H8.04V9.15h-1.5v3.38H3.16zm2.62-.75V8.4h3v3.38h1.88V6.53h2.1L7.27 1.06 1.8 6.53h2.1v5.25H5.8z"/>
</svg>
